svg/archive_alert_outline.svg

<svg xmlns="http://www.w3.org/2000/svg" viewBox="0 0 24 24"><path d="M2 4h16v3H2zm5.5 7h5c.28 0 .5.22.5.5V13H7v-1.5c0-.28.22-.5.5-.5M20 13V7h2v6zm0 4v-2h2v2zM3 8h2v10h10V8h2v12H3z"/></svg>

<?xml version="1.0" encoding="UTF-8"?><!DOCTYPE svg PUBLIC "-//W3C//DTD SVG 1.1//EN" "http://www.w3.org/Graphics/SVG/1.1/DTD/svg11.dtd"><svg xmlns="http://www.w3.org/2000/svg" xmlns:xlink="http://www.w3.org/1999/xlink" version="1.1" id="mdi-archive-alert-outline" width="24" height="24" viewBox="0 0 24 24"><path d="M2 4H18V7H2V4M7.5 11H12.5C12.78 11 13 11.22 13 11.5V13H7V11.5C7 11.22 7.22 11 7.5 11M20 13V7H22V13H20M20 17V15H22V17H20M3 8H5V18H15V8H17V20H3V8Z" /></svg>
